X:1
T:Han Mass aa'n Lasse
T:Han Mass aa'n Lasse
T:Bind 2, No. 8
T:Norsk folkemelodi, arr. Joh. D. Behrens
C:Norsk folkemelodi, arr. Joh. D. Behrens
%%score [ 1 2 3 4 ]
L:1/8
Q:1/4=116
M:2/2
K:G
V:1 treble-8 nm="T1"
V:2 treble-8 nm="T2"
V:3 bass nm="B1"
V:4 bass nm="2"
V:1
"^Allegretto"!mf! G | G2 G G!<(! B2 (B B)!<)! | d2 d d g3 d | d2 d2!>(! d2 B B!>)! | A2 !>!G4 z2 | %5
w: 1.Han|Mass aa 'n Las- se daj-|gjin- go paa Raa tryaa|haj- le Da- ge te|En- da,|
w: 2.Aa|Mass spen- de Bo- gjin _|upp fyr sitt Kne tryaa|haj- le Da- ge te|En- da,|
w: 3.Aa'n|Las- se drog ut sin _|To- le- * kniv tryaa|haj- le Da- ge te|En- da,|
!mf! d2 d d B2"^dim." B B |"^e rit." G2 G2 !fermata!D4 | %7
w: kos- laj- ne daj skul- de|Bjød- nen faa?|
w: skout so te Bjød- nen, so|han datt ne.|
w: kjoyr- de'n so inn i *|Mas- ses Liv|
"_\"Me sku skjøte'n\" sa'n Mass; \"Aa taka Hue!\" sa'n Lass';\n\"E trur han datt!\" sa'n Mass; \"Kom, tak'n fat!\" sa'n Lass';\n\"Au, au, au!\" sa'n Mass; \"Du æ daud!\" sa'n Lass';\n" !fermata!z8 | %8
w: |
w: |
w: |
 !fermata!z2 z4"^a tempo"!f! (3g g g | !fermata!g2!mf!!<(! d d!<)! !>!d2 B B | %10
w: "Si- gji du|dæ?" sa 'n Mass te 'o|
w: "Si- gji du|dæ?" sa 'n Mass te 'o|
w: "Si- gji du|dæ?" sa 'n Mass te 'o|
!>(! !>!A2 !>!G4 z!>)! |] %11
w: Las- se.|
w: Las- se.|
w: Las- se.|
V:2
!mf! G | G2 G G!<(! B2 (A G)!<)! | F2 d c B3 A | G2 A2!>(! B2 G G!>)! | F2 !>!G4 z2 | %5
w: 1.Han|Mass aa 'n Las- se daj-|gjin- go paa Raa tryaa|haj- le Da- ge te|En- da,|
w: 2.Aa|Mass spen- de Bo- gjin _|upp fyr sitt Kne tryaa|haj- le Da- ge te|En- da,|
w: 3.Aa'n|Las- se drog ut sin _|To- le- * kniv tryaa|haj- le Da- ge te|En- da,|
!mf! A2 A A G2"^dim." G G |"^e rit." D2 D2 !fermata!D4 | %7
w: kos- laj- ne daj skul- de|Bjød- nen faa?|
w: skout so te Bjød- nen, so|han datt ne.|
w: kjoyr- de'n so inn i *|Mas- ses Liv|
"_\"Me sku skjøte'n\" sa'n Mass; \"Aa taka Hue!\" sa'n Lass';\n\"E trur han datt!\" sa'n Mass; \"Kom, tak'n fat!\" sa'n Lass';\n\"Au, au, au!\" sa'n Mass; \"Du æ daud!\" sa'n Lass';\n" !fermata!z8 | %8
w: |
w: |
w: |
 !fermata!z2 z4"^a tempo"!f! (3d d =f | !fermata!e2!mf!!<(! d c!<)! !>!B2 G G | %10
w: "Si- gji du|dæ?" sa 'n Mass te 'o|
w: "Si- gji du|dæ?" sa 'n Mass te 'o|
w: "Si- gji du|dæ?" sa 'n Mass te 'o|
!>(! !>!F2 !>!G4 z!>)! |] %11
w: Las- se.|
w: Las- se.|
w: Las- se.|
V:3
!mf! G, | G,2 G, G,!<(! B,2 (A, G,)!<)! | A,2 G, F, G,3 F, | G,2 F,2!>(! G,2 G, E,!>)! | %4
w: 1.Han|Mass aa 'n Las- se daj-|gjin- go paa Raa tryaa|haj- le Da- ge te|
w: 2.Aa|Mass spen- de Bo- gjin _|upp fyr sitt Kne tryaa|haj- le Da- ge te|
w: 3.Aa'n|Las- se drog ut sin _|To- le- * kniv tryaa|haj- le Da- ge te|
 F,2 !>!G,4 z2 |!mf! (F,G,) A, F, G,2"^dim." D, D, |"^e rit." D,2 B,,2 !fermata!D,4 | %7
w: En- da,|kos- * laj- ne daj skul- de|Bjød- nen faa?|
w: En- da,|skout _ so te Bjød- nen, so|han datt ne.|
w: En- da,|kjoyr- * de'n so inn i *|Mas- ses Liv|
"_\"Me sku skjøte'n\" sa'n Mass; \"Aa taka Hue!\" sa'n Lass';\n\"E trur han datt!\" sa'n Mass; \"Kom, tak'n fat!\" sa'n Lass';\n\"Au, au, au!\" sa'n Mass; \"Du æ daud!\" sa'n Lass';\n" !fermata!z8 | %8
w: |
w: |
w: |
 !fermata!z2 z4"^a tempo"!f! (3G, G, G, | !fermata!G,2!mf!!<(! G, F,!<)! !>!G,2 D, D, | %10
w: "Si- gji du|dæ?" sa 'n Mass te 'o|
w: "Si- gji du|dæ?" sa 'n Mass te 'o|
w: "Si- gji du|dæ?" sa 'n Mass te 'o|
!>(! !>!D,2 !>!B,,4 z!>)! |] %11
w: Las- se.|
w: Las- se.|
w: Las- se.|
V:4
!mf! G, | G,2 G, G,!<(! G,2 (F, E,)!<)! | (D,C,) B,, A,, G,,3 D, | %3
w: 1.Han|Mass aa 'n Las- se daj-|gjin- * go paa Raa tryaa|
w: 2.Aa|Mass spen- de Bo- gjin _|upp _ fyr sitt Kne tryaa|
w: 3.Aa'n|Las- se drog ut sin _|To- * le- * kniv tryaa|
 B,,2 D,2 (G,,!>(!B,,) E, ^C,!>)! | D,2 !>!G,4 z2 |!mf! (D,E,) F, D, G,2"^dim." G,, G,, | %6
w: haj- le Da- * ge te|En- da,|kos- * laj- ne daj skul- de|
w: haj- le Da- * ge te|En- da,|skout _ so te Bjød- nen, so|
w: haj- le Da- * ge te|En- da,|kjoyr- * de'n so inn i *|
"^e rit." B,,2 G,,2 !fermata!D,4 | %7
w: Bjød- nen faa?|
w: han datt ne.|
w: Mas- ses Liv|
"_\"Me sku skjøte'n\" sa'n Mass; \"Aa taka Hue!\" sa'n Lass';\n\"E trur han datt!\" sa'n Mass; \"Kom, tak'n fat!\" sa'n Lass';\n\"Au, au, au!\" sa'n Mass; \"Du æ daud!\" sa'n Lass';\n" !fermata!z8 | %8
w: |
w: |
w: |
 !fermata!z2 z4"^a tempo"!f! (3B,, A,, G,, | !fermata!C,2!mf!!<(! B,, D,!<)! !>!G,,2 G,, B,, | %10
w: "Si- gji du|dæ?" sa 'n Mass te 'o|
w: "Si- gji du|dæ?" sa 'n Mass te 'o|
w: "Si- gji du|dæ?" sa 'n Mass te 'o|
!>(! !>!D,2 !>!G,,4 z!>)! |] %11
w: Las- se.|
w: Las- se.|
w: Las- se.|

